icons/folder-arrow-up-right.svg

<svg fill="none" stroke="currentColor" stroke-linecap="round" stroke-linejoin="round" stroke-width="1.5" viewBox="0 0 24 24"><path d="M1.532 5.916a2.96 2.96 0 0 1 2.937-2.958l5.42-.037a2.06 2.06 0 0 1 1.469.602l1.928 1.928c.385.385.909.602 1.454.602h4.813a2.96 2.96 0 0 1 2.958 2.958v9.019a2.96 2.96 0 0 1-2.949 2.958l-15.064.046a2.96 2.96 0 0 1-2.966-2.958zm17.36 3.575-5.37 5.37"/><path d="M14.915 9.138h4.165c.044 0 .086.017.116.049a.16.16 0 0 1 .05.116v3.89"/></svg>

<?xml version="1.0" encoding="UTF-8" standalone="no"?>
<!DOCTYPE svg PUBLIC "-//W3C//DTD SVG 1.1//EN" "http://www.w3.org/Graphics/SVG/1.1/DTD/svg11.dtd">
<svg width="100%" height="100%" viewBox="0 0 24 24" version="1.1" xmlns="http://www.w3.org/2000/svg" xmlns:xlink="http://www.w3.org/1999/xlink" xml:space="preserve" xmlns:serif="http://www.serif.com/" style="fill-rule:evenodd;clip-rule:evenodd;stroke-linecap:round;stroke-linejoin:round;stroke-miterlimit:1.5;">
    <g>
        <g>
            <path d="M1.532,5.916C1.532,4.29 2.844,2.97 4.469,2.958C6.351,2.945 8.663,2.929 9.889,2.921C10.44,2.917 10.969,3.134 11.358,3.523C11.914,4.079 12.732,4.897 13.286,5.451C13.671,5.836 14.195,6.053 14.74,6.053C15.853,6.053 17.858,6.053 19.553,6.053C21.187,6.053 22.511,7.377 22.511,9.011L22.511,18.03C22.511,19.66 21.192,20.983 19.562,20.988C15.573,21 8.497,21.021 4.498,21.034C3.712,21.036 2.958,20.725 2.401,20.171C1.845,19.616 1.532,18.862 1.532,18.076C1.532,14.714 1.532,9.266 1.532,5.916Z" style="fill:none;stroke:white;stroke-width:1.5px;"/>
            <g transform="matrix(0.707107,-0.707107,0.707107,0.707107,1.83221,9.58091)">
                <path d="M12.127,12L4.532,12" style="fill:none;fill-rule:nonzero;stroke:white;stroke-width:1.5px;stroke-miterlimit:4;"/>
            </g>
            <g transform="matrix(0.80014,0,-0,0.80014,8.62534,2.15545)">
                <path d="M7.861,8.727L13.066,8.727C13.121,8.727 13.174,8.749 13.212,8.788C13.251,8.826 13.273,8.879 13.273,8.934L13.273,13.795" style="fill:none;stroke:white;stroke-width:1.87px;"/>
            </g>
        </g>
    </g>
</svg>
